packages/gestalt-icons-android/vr-theme/ic_vr_thumbs-up_gestalt.svg

<svg width="24" height="24" viewBox="0 0 24 24" fill="none" xmlns="http://www.w3.org/2000/svg">
<path fill-rule="evenodd" clip-rule="evenodd" d="M9 1.5C9 0.671574 9.67157 0 10.5 0H11.8377C13.5428 0 15.1401 1.09702 15.5539 2.85235C15.7788 3.80611 16 4.98865 16 6C16 6.32223 15.9777 6.65995 15.9404 7H18.5C20.433 7 22 8.567 22 10.5C22 10.8402 21.9512 11.17 21.86 11.4823C22.2626 12.0522 22.5 12.7488 22.5 13.5C22.5 14.2512 22.2626 14.9478 21.86 15.5178C21.9512 15.83 22 16.1598 22 16.5C22 17.4709 21.6039 18.3496 20.967 18.9827C20.7319 20.6873 19.2692 22 17.5 22H12.3392C11.3615 22 10.3881 21.8697 9.44489 21.6124L6.52887 20.8171C5.75712 20.6066 4.96076 20.5 4.16082 20.5H4C2.89543 20.5 2 19.6046 2 18.5V12.7543C2 11.8613 2.59195 11.0766 3.45056 10.8313L5.54311 10.2334C5.76376 10.1703 5.95602 10.0333 6.08762 9.84532L9 5.68478V1.5ZM11 2V5.68478C11 6.09512 10.8738 6.49554 10.6385 6.8317L7.72608 10.9922C7.33128 11.5562 6.75451 11.9673 6.09255 12.1564L4 12.7543V18.5H4.16082C5.13852 18.5 6.11186 18.6303 7.05511 18.8876L9.97112 19.6829C10.7429 19.8934 11.5392 20 12.3392 20H17.5C18.3284 20 18.9999 19.3285 19 18.5001L19 18.0006L19.3994 17.7006C19.766 17.4253 20 16.9901 20 16.5C20 16.2436 19.9365 16.005 19.8252 15.7962L19.4646 15.1195L20.0245 14.5957C20.3184 14.3206 20.5 13.9323 20.5 13.5C20.5 13.0677 20.3184 12.6794 20.0245 12.4043L19.4646 11.8805L19.8252 11.2038C19.9365 10.995 20 10.7564 20 10.5C20 9.67157 19.3284 9 18.5 9H13.5693L13.7944 7.81363C13.9188 7.15751 14 6.52196 14 6C14 5.22716 13.8233 4.22758 13.6073 3.31126C13.4285 2.55292 12.7152 2 11.8377 2H11Z" fill="black"/>
</svg>

<svg xmlns="http://www.w3.org/2000/svg" width="24" height="24"><path d="M9 1.5C9 .67 9.67 0 10.5 0h1.34c1.7 0 3.3 1.1 3.71 2.85C15.78 3.81 16 5 16 6q0 .49-.06 1h2.56a3.5 3.5 0 0 1 3.36 4.48 3.5 3.5 0 0 1 0 4.04 3.5 3.5 0 0 1-.9 3.46A3.5 3.5 0 0 1 17.5 22h-5.16a11 11 0 0 1-2.9-.39l-2.91-.8a9 9 0 0 0-2.37-.31H4a2 2 0 0 1-2-2v-5.75a2 2 0 0 1 1.45-1.92l2.1-.6a1 1 0 0 0 .54-.38L9 5.68zm2 .5v3.68a2 2 0 0 1-.36 1.15L7.73 11a3 3 0 0 1-1.64 1.17l-2.09.6v5.74h.16a11 11 0 0 1 2.9.39l2.91.8a9 9 0 0 0 2.37.31h5.16c.83 0 1.5-.67 1.5-1.5V18l.4-.3a1.5 1.5 0 0 0 .43-1.9l-.37-.68.56-.52a1.5 1.5 0 0 0 0-2.2l-.56-.52.37-.68q.16-.3.17-.7c0-.83-.67-1.5-1.5-1.5h-4.93l.22-1.19c.13-.65.21-1.29.21-1.81 0-.77-.18-1.77-.4-2.69A1.8 1.8 0 0 0 11.85 2z"/></svg>
